src/gui/emoticons/radioactive.svg

<svg xmlns="http://www.w3.org/2000/svg" xmlns:xlink="http://www.w3.org/1999/xlink" width="16pt" height="16pt" version="1.1" viewBox="0 0 16 16"><defs><linearGradient id="linear0" x1="64" x2="64" y1="3.167" y2="124.88" gradientTransform="matrix(0.125,0,0,0.125,0,0)" gradientUnits="userSpaceOnUse"><stop offset="0" style="stop-color:#ffeb3b;stop-opacity:1"/><stop offset=".419" style="stop-color:#ffdc28;stop-opacity:1"/><stop offset=".995" style="stop-color:#ffc107;stop-opacity:1"/></linearGradient><filter id="alpha" width="100%" height="100%" x="0%" y="0%" filterUnits="objectBoundingBox"><feColorMatrix in="SourceGraphic" type="matrix" values="0 0 0 0 1 0 0 0 0 1 0 0 0 0 1 0 0 0 1 0"/></filter><mask id="mask0"><g filter="url(#alpha)"><rect width="16" height="16" x="0" y="0" style="fill:#000;fill-opacity:.2;stroke:none"/></g></mask><clipPath id="clip1"><rect width="16" height="16"/></clipPath><g id="surface6" clip-path="url(#clip1)"><path style="stroke:none;fill-rule:nonzero;fill:#424242;fill-opacity:1" d="M 8 0.875 C 11.929688 0.875 15.125 4.070312 15.125 8 C 15.125 11.929688 11.929688 15.125 8 15.125 C 4.070312 15.125 0.875 11.929688 0.875 8 C 0.875 4.070312 4.070312 0.875 8 0.875 M 8 0.5 C 3.859375 0.5 0.5 3.859375 0.5 8 C 0.5 12.140625 3.859375 15.5 8 15.5 C 12.140625 15.5 15.5 12.140625 15.5 8 C 15.5 3.859375 12.140625 0.5 8 0.5 Z M 8 0.5"/></g><mask id="mask1"><g filter="url(#alpha)"><rect width="16" height="16" x="0" y="0" style="fill:#000;fill-opacity:.2;stroke:none"/></g></mask><clipPath id="clip2"><rect width="16" height="16"/></clipPath><g id="surface9" clip-path="url(#clip2)"><path style="stroke:none;fill-rule:nonzero;fill:#424242;fill-opacity:1" d="M 11.015625 3.046875 C 11.058594 3.046875 11.101562 3.058594 11.140625 3.082031 C 12.71875 4.085938 13.792969 5.820312 13.871094 7.8125 C 13.875 7.9375 13.773438 8.046875 13.644531 8.046875 L 9.5625 8.046875 C 9.453125 8.046875 9.359375 7.96875 9.34375 7.859375 C 9.296875 7.507812 9.109375 7.195312 8.84375 6.984375 C 8.753906 6.914062 8.726562 6.792969 8.78125 6.691406 L 10.824219 3.15625 C 10.863281 3.085938 10.9375 3.046875 11.015625 3.046875 M 11.015625 2.671875 C 10.800781 2.671875 10.605469 2.785156 10.496094 2.96875 L 8.457031 6.507812 C 8.304688 6.765625 8.371094 7.089844 8.609375 7.28125 C 8.808594 7.4375 8.9375 7.664062 8.972656 7.914062 C 9.011719 8.203125 9.265625 8.421875 9.5625 8.421875 L 13.644531 8.421875 C 13.808594 8.421875 13.964844 8.355469 14.078125 8.238281 C 14.191406 8.121094 14.25 7.960938 14.246094 7.796875 C 14.164062 5.75 13.078125 3.867188 11.339844 2.765625 C 11.242188 2.703125 11.132812 2.671875 11.015625 2.671875 Z M 11.015625 2.671875"/><path style="stroke:none;fill-rule:nonzero;fill:#424242;fill-opacity:1" d="M 4.984375 3.046875 C 5.0625 3.046875 5.136719 3.085938 5.175781 3.15625 L 7.21875 6.695312 C 7.277344 6.792969 7.246094 6.914062 7.15625 6.984375 C 6.890625 7.199219 6.703125 7.507812 6.65625 7.859375 C 6.640625 7.96875 6.546875 8.046875 6.4375 8.046875 L 2.355469 8.046875 C 2.226562 8.046875 2.125 7.941406 2.128906 7.8125 C 2.207031 5.820312 3.277344 4.085938 4.859375 3.082031 C 4.898438 3.058594 4.941406 3.046875 4.984375 3.046875 M 4.984375 2.671875 C 4.867188 2.671875 4.757812 2.703125 4.660156 2.765625 C 2.921875 3.867188 1.835938 5.746094 1.753906 7.796875 C 1.75 7.957031 1.808594 8.121094 1.921875 8.238281 C 2.035156 8.355469 2.191406 8.421875 2.355469 8.421875 L 6.4375 8.421875 C 6.734375 8.421875 6.988281 8.203125 7.027344 7.910156 C 7.0625 7.660156 7.191406 7.4375 7.390625 7.277344 C 7.628906 7.089844 7.695312 6.765625 7.542969 6.503906 L 5.503906 2.96875 C 5.394531 2.785156 5.199219 2.671875 4.984375 2.671875 Z M 4.984375 2.671875"/><path style="stroke:none;fill-rule:nonzero;fill:#424242;fill-opacity:1" d="M 8.589844 9.289062 C 8.667969 9.289062 8.742188 9.328125 8.78125 9.398438 L 10.824219 12.9375 C 10.886719 13.046875 10.84375 13.1875 10.730469 13.246094 C 9.914062 13.675781 8.984375 13.921875 8 13.921875 C 7.011719 13.921875 6.082031 13.675781 5.265625 13.246094 C 5.152344 13.1875 5.109375 13.046875 5.175781 12.9375 L 7.21875 9.398438 C 7.261719 9.328125 7.332031 9.289062 7.410156 9.289062 C 7.4375 9.289062 7.464844 9.292969 7.492188 9.304688 C 7.648438 9.367188 7.820312 9.402344 8 9.402344 C 8.179688 9.402344 8.351562 9.367188 8.507812 9.304688 C 8.535156 9.292969 8.5625 9.289062 8.589844 9.289062 M 8.589844 8.914062 C 8.511719 8.914062 8.4375 8.925781 8.367188 8.957031 C 8.25 9.003906 8.125 9.027344 8 9.027344 C 7.875 9.027344 7.75 9.003906 7.632812 8.957031 C 7.5625 8.925781 7.488281 8.914062 7.410156 8.914062 C 7.199219 8.914062 7 9.027344 6.894531 9.210938 L 4.851562 12.75 C 4.769531 12.890625 4.75 13.054688 4.796875 13.214844 C 4.839844 13.371094 4.949219 13.503906 5.09375 13.578125 C 5.984375 14.046875 6.988281 14.296875 8 14.296875 C 9.011719 14.296875 10.015625 14.050781 10.90625 13.578125 C 11.050781 13.503906 11.160156 13.371094 11.203125 13.214844 C 11.25 13.054688 11.230469 12.890625 11.148438 12.75 L 9.105469 9.210938 C 9 9.027344 8.800781 8.914062 8.589844 8.914062 Z M 8.589844 8.914062"/><path style="stroke:none;fill-rule:nonzero;fill:#424242;fill-opacity:1" d="M 8 7.140625 C 8.5 7.140625 8.902344 7.546875 8.902344 8.046875 C 8.902344 8.546875 8.5 8.949219 8 8.949219 C 7.5 8.949219 7.097656 8.546875 7.097656 8.046875 C 7.097656 7.546875 7.5 7.140625 8 7.140625 M 8 6.765625 C 7.296875 6.765625 6.722656 7.339844 6.722656 8.046875 C 6.722656 8.75 7.296875 9.324219 8 9.324219 C 8.703125 9.324219 9.277344 8.75 9.277344 8.046875 C 9.277344 7.339844 8.703125 6.765625 8 6.765625 Z M 8 6.765625"/></g><linearGradient id="linear1" x1="90.488" x2="90.488" y1="22.5" y2="113.37" gradientTransform="matrix(0.125,0,0,0.125,0,0)" gradientUnits="userSpaceOnUse"><stop offset="0" style="stop-color:#616161;stop-opacity:1"/><stop offset=".495" style="stop-color:#3f3f3f;stop-opacity:1"/><stop offset="1" style="stop-color:#212121;stop-opacity:1"/></linearGradient><linearGradient id="linear2" x1="37.512" x2="37.512" y1="22.5" y2="113.37" gradientTransform="matrix(0.125,0,0,0.125,0,0)" gradientUnits="userSpaceOnUse"><stop offset="0" style="stop-color:#616161;stop-opacity:1"/><stop offset=".495" style="stop-color:#3f3f3f;stop-opacity:1"/><stop offset="1" style="stop-color:#212121;stop-opacity:1"/></linearGradient><linearGradient id="linear3" x1="64" x2="64" y1="22.5" y2="113.37" gradientTransform="matrix(0.125,0,0,0.125,0,0)" gradientUnits="userSpaceOnUse"><stop offset="0" style="stop-color:#616161;stop-opacity:1"/><stop offset=".495" style="stop-color:#3f3f3f;stop-opacity:1"/><stop offset="1" style="stop-color:#212121;stop-opacity:1"/></linearGradient><linearGradient id="linear4" x1="64" x2="64" y1="22.5" y2="113.37" gradientTransform="matrix(0.125,0,0,0.125,0,0)" gradientUnits="userSpaceOnUse"><stop offset="0" style="stop-color:#616161;stop-opacity:1"/><stop offset=".495" style="stop-color:#3f3f3f;stop-opacity:1"/><stop offset="1" style="stop-color:#212121;stop-opacity:1"/></linearGradient></defs><g id="surface1"><path style="stroke:none;fill-rule:nonzero;fill:url(#linear0)" d="M 15.5 8 C 15.5 12.140625 12.140625 15.5 8 15.5 C 3.859375 15.5 0.5 12.140625 0.5 8 C 0.5 3.859375 3.859375 0.5 8 0.5 C 12.140625 0.5 15.5 3.859375 15.5 8 Z M 15.5 8"/><use mask="url(#mask0)" xlink:href="#surface6"/><use mask="url(#mask1)" xlink:href="#surface9"/><path style="stroke:none;fill-rule:nonzero;fill:url(#linear1)" d="M 9.5625 8.046875 L 13.644531 8.046875 C 13.773438 8.046875 13.875 7.9375 13.871094 7.8125 C 13.792969 5.820312 12.722656 4.082031 11.140625 3.082031 C 11.03125 3.015625 10.886719 3.046875 10.824219 3.15625 L 8.78125 6.695312 C 8.722656 6.792969 8.753906 6.914062 8.84375 6.984375 C 9.109375 7.199219 9.296875 7.507812 9.34375 7.859375 C 9.359375 7.96875 9.453125 8.046875 9.5625 8.046875 Z M 9.5625 8.046875"/><path style="stroke:none;fill-rule:nonzero;fill:url(#linear2)" d="M 7.21875 6.695312 L 5.175781 3.15625 C 5.113281 3.046875 4.96875 3.015625 4.859375 3.082031 C 3.28125 4.085938 2.207031 5.820312 2.128906 7.8125 C 2.125 7.9375 2.226562 8.046875 2.355469 8.046875 L 6.4375 8.046875 C 6.546875 8.046875 6.640625 7.96875 6.65625 7.859375 C 6.703125 7.507812 6.890625 7.195312 7.15625 6.984375 C 7.246094 6.914062 7.277344 6.792969 7.21875 6.695312 Z M 7.21875 6.695312"/><path style="stroke:none;fill-rule:nonzero;fill:url(#linear3)" d="M 8 9.402344 C 7.820312 9.402344 7.648438 9.367188 7.492188 9.304688 C 7.390625 9.261719 7.273438 9.304688 7.21875 9.398438 L 5.175781 12.9375 C 5.113281 13.046875 5.15625 13.1875 5.269531 13.246094 C 6.085938 13.675781 7.015625 13.921875 8 13.921875 C 8.988281 13.921875 9.917969 13.675781 10.734375 13.246094 C 10.847656 13.1875 10.890625 13.046875 10.824219 12.9375 L 8.78125 9.398438 C 8.726562 9.304688 8.609375 9.261719 8.507812 9.304688 C 8.351562 9.367188 8.179688 9.402344 8 9.402344 Z M 8 9.402344"/><path style="stroke:none;fill-rule:nonzero;fill:url(#linear4)" d="M 8.902344 8.046875 C 8.902344 8.546875 8.5 8.949219 8 8.949219 C 7.5 8.949219 7.097656 8.546875 7.097656 8.046875 C 7.097656 7.546875 7.5 7.140625 8 7.140625 C 8.5 7.140625 8.902344 7.546875 8.902344 8.046875 Z M 8.902344 8.046875"/></g></svg>

<svg xmlns="http://www.w3.org/2000/svg" xmlns:xlink="http://www.w3.org/1999/xlink" width="16pt" height="16pt" viewBox="0 0 16 16"><defs><linearGradient id="d" x1="64" x2="64" y1="3.167" y2="124.88" gradientTransform="scale(.125)" gradientUnits="userSpaceOnUse"><stop offset="0" style="stop-color:#ffeb3b;stop-opacity:1"/><stop offset=".419" style="stop-color:#ffdc28;stop-opacity:1"/><stop offset=".995" style="stop-color:#ffc107;stop-opacity:1"/></linearGradient><linearGradient id="i" x1="90.488" x2="90.488" y1="22.5" y2="113.37" gradientTransform="scale(.125)" gradientUnits="userSpaceOnUse"><stop offset="0" style="stop-color:#616161;stop-opacity:1"/><stop offset=".495" style="stop-color:#3f3f3f;stop-opacity:1"/><stop offset="1" style="stop-color:#212121;stop-opacity:1"/></linearGradient><linearGradient id="j" x1="37.512" x2="37.512" y1="22.5" y2="113.37" gradientTransform="scale(.125)" gradientUnits="userSpaceOnUse"><stop offset="0" style="stop-color:#616161;stop-opacity:1"/><stop offset=".495" style="stop-color:#3f3f3f;stop-opacity:1"/><stop offset="1" style="stop-color:#212121;stop-opacity:1"/></linearGradient><linearGradient id="k" x1="64" x2="64" y1="22.5" y2="113.37" gradientTransform="scale(.125)" gradientUnits="userSpaceOnUse"><stop offset="0" style="stop-color:#616161;stop-opacity:1"/><stop offset=".495" style="stop-color:#3f3f3f;stop-opacity:1"/><stop offset="1" style="stop-color:#212121;stop-opacity:1"/></linearGradient><linearGradient id="l" x1="64" x2="64" y1="22.5" y2="113.37" gradientTransform="scale(.125)" gradientUnits="userSpaceOnUse"><stop offset="0" style="stop-color:#616161;stop-opacity:1"/><stop offset=".495" style="stop-color:#3f3f3f;stop-opacity:1"/><stop offset="1" style="stop-color:#212121;stop-opacity:1"/></linearGradient><clipPath id="b"><path d="M0 0h16v16H0z"/></clipPath><clipPath id="c"><path d="M0 0h16v16H0z"/></clipPath><mask id="e"><g filter="url(#a)"><path d="M0 0h16v16H0z" style="fill:#000;fill-opacity:.2;stroke:none"/></g></mask><mask id="g"><g filter="url(#a)"><path d="M0 0h16v16H0z" style="fill:#000;fill-opacity:.2;stroke:none"/></g></mask><g id="f" clip-path="url(#b)"><path d="M8 .875A7.13 7.13 0 0 1 15.125 8 7.13 7.13 0 0 1 8 15.125 7.13 7.13 0 0 1 .875 8 7.13 7.13 0 0 1 8 .875M8 .5C3.86.5.5 3.86.5 8s3.36 7.5 7.5 7.5 7.5-3.36 7.5-7.5S12.14.5 8 .5m0 0" style="stroke:none;fill-rule:nonzero;fill:#424242;fill-opacity:1"/></g><g id="h" clip-path="url(#c)"><path d="M11.016 3.047q.066 0 .125.035a5.88 5.88 0 0 1 2.73 4.73.23.23 0 0 1-.226.235H9.563a.22.22 0 0 1-.22-.188 1.35 1.35 0 0 0-.5-.875.23.23 0 0 1-.062-.293l2.043-3.535c.04-.07.114-.11.192-.11m0-.374a.6.6 0 0 0-.52.297L8.457 6.508a.6.6 0 0 0 .152.773c.2.157.329.383.364.633.039.29.293.508.59.508h4.082a.603.603 0 0 0 .601-.625 6.26 6.26 0 0 0-2.906-5.031.6.6 0 0 0-.324-.094M4.984 3.047c.079 0 .153.039.192.11l2.043 3.538c.058.098.027.22-.063.29a1.36 1.36 0 0 0-.5.874.22.22 0 0 1-.218.188H2.355a.226.226 0 0 1-.226-.235 5.87 5.87 0 0 1 2.73-4.73.24.24 0 0 1 .125-.035m0-.375a.6.6 0 0 0-.324.094 6.25 6.25 0 0 0-2.906 5.03.603.603 0 0 0 .602.625h4.082c.296 0 .55-.218.59-.51a.98.98 0 0 1 .363-.634.596.596 0 0 0 .152-.773l-2.04-3.535a.6.6 0 0 0-.519-.297M8.59 9.29c.078 0 .152.038.191.108l2.043 3.54c.063.109.02.25-.094.308a5.854 5.854 0 0 1-5.465 0 .22.22 0 0 1-.09-.309L7.22 9.399a.22.22 0 0 1 .273-.093 1.37 1.37 0 0 0 1.016 0 .2.2 0 0 1 .082-.016m0-.375a.5.5 0 0 0-.223.043 1 1 0 0 1-.734 0 .597.597 0 0 0-.738.254L4.852 12.75a.59.59 0 0 0-.055.465c.043.156.152.289.297.363.89.469 1.894.719 2.906.719a6.2 6.2 0 0 0 2.906-.719.59.59 0 0 0 .297-.363.59.59 0 0 0-.055-.465L9.105 9.21a.6.6 0 0 0-.515-.296m0 0" style="stroke:none;fill-rule:nonzero;fill:#424242;fill-opacity:1"/><path d="M8 7.14a.904.904 0 1 1-.002 1.808A.904.904 0 0 1 8 7.14m0-.375c-.703 0-1.277.574-1.277 1.28A1.28 1.28 0 0 0 8 9.325a1.28 1.28 0 0 0 0-2.558m0 0" style="stroke:none;fill-rule:nonzero;fill:#424242;fill-opacity:1"/></g><filter id="a" width="100%" height="100%" x="0%" y="0%" filterUnits="objectBoundingBox"><feColorMatrix in="SourceGraphic" values="0 0 0 0 1 0 0 0 0 1 0 0 0 0 1 0 0 0 1 0"/></filter></defs><path d="M15.5 8c0 4.14-3.36 7.5-7.5 7.5S.5 12.14.5 8 3.86.5 8 .5s7.5 3.36 7.5 7.5m0 0" style="stroke:none;fill-rule:nonzero;fill:url(#d)"/><use xlink:href="#f" mask="url(#e)"/><use xlink:href="#h" mask="url(#g)"/><path d="M9.563 8.047h4.082c.128 0 .23-.11.226-.235a5.87 5.87 0 0 0-2.73-4.73.23.23 0 0 0-.317.074l-2.043 3.54c-.058.097-.027.218.063.288.265.215.453.524.5.875a.22.22 0 0 0 .219.188m0 0" style="stroke:none;fill-rule:nonzero;fill:url(#i)"/><path d="M7.219 6.695 5.176 3.156a.23.23 0 0 0-.317-.074 5.88 5.88 0 0 0-2.73 4.73.23.23 0 0 0 .226.235h4.083a.22.22 0 0 0 .218-.188c.047-.351.235-.664.5-.875.09-.07.121-.191.063-.289m0 0" style="stroke:none;fill-rule:nonzero;fill:url(#j)"/><path d="M8 9.402c-.18 0-.352-.035-.508-.097a.22.22 0 0 0-.273.093l-2.043 3.54c-.063.109-.02.25.094.308a5.854 5.854 0 0 0 5.465 0 .22.22 0 0 0 .09-.309L8.78 9.399a.22.22 0 0 0-.273-.093A1.4 1.4 0 0 1 8 9.402m0 0" style="stroke:none;fill-rule:nonzero;fill:url(#k)"/><path d="M8.902 8.047A.9.9 0 0 1 8 8.949a.904.904 0 1 1 .902-.902m0 0" style="stroke:none;fill-rule:nonzero;fill:url(#l)"/></svg>
